svg/fluentui-system-icons/ic_fluent_bezier_curve_square_12_filled.svg

<svg width="12" height="12" viewBox="0 0 12 12" fill="none" xmlns="http://www.w3.org/2000/svg">
<path d="M1 3C1 1.89543 1.89543 1 3 1H9C10.1046 1 11 1.89543 11 3V8C11 8 11 8 11 8C10.1175 8 9.55505 7.72956 9.15443 7.35398C8.73664 6.9623 8.45708 6.4215 8.2142 5.8143C8.13121 5.60682 8.05718 5.40435 7.98244 5.19994C7.94701 5.10305 7.91141 5.00566 7.87463 4.90715C7.76429 4.61159 7.64532 4.31161 7.50364 4.04596C7.22 3.51413 6.7754 3 5.99996 3C5.22452 3 4.77993 3.51413 4.49628 4.04596C4.3546 4.31161 4.23563 4.61159 4.12529 4.90715C4.08853 5.00563 4.05295 5.10293 4.01753 5.1998C3.94279 5.40423 3.86872 5.6068 3.78572 5.8143C3.54285 6.4215 3.26328 6.9623 2.84549 7.35398C2.44488 7.72955 1.88246 7.99999 1 8V3ZM1 9C1 10.1046 1.89543 11 3 11H9C10.1046 11 11 10.1046 11 9C11 9 11 9 11 9C9.88248 9 9.06987 8.64544 8.47049 8.08352C7.88828 7.5377 7.54285 6.8285 7.28572 6.1857C7.19713 5.96421 7.1142 5.73748 7.03686 5.526C7.00279 5.43286 6.9697 5.34238 6.93779 5.25691C6.82938 4.96653 6.7296 4.71964 6.62128 4.51654C6.40493 4.11087 6.22452 4 5.99996 4C5.7754 4 5.595 4.11087 5.37864 4.51654C5.27032 4.71964 5.17054 4.96653 5.06213 5.25691C5.0302 5.34244 4.99719 5.43269 4.9631 5.5259C4.88575 5.73741 4.80281 5.96417 4.7142 6.1857C4.45708 6.8285 4.11164 7.5377 3.52943 8.08352C2.93005 8.64544 2.1175 8.99999 1 9Z" fill="#212121"/>
</svg>

<svg xmlns="http://www.w3.org/2000/svg" width="12" height="12"><path d="M1 3a2 2 0 0 1 2-2h6a2 2 0 0 1 2 2v5c-.883 0-1.445-.27-1.846-.646-.417-.392-.697-.933-.94-1.54-.083-.207-.157-.41-.232-.614l-.107-.293a7.223 7.223 0 0 0-.371-.861C7.22 3.514 6.775 3 6 3s-1.22.514-1.504 1.046c-.141.266-.26.566-.37.861l-.108.293c-.075.204-.15.407-.232.614-.243.607-.523 1.148-.94 1.54C2.444 7.73 1.881 8 1 8V3Zm0 6a2 2 0 0 0 2 2h6a2 2 0 0 0 2-2c-1.118 0-1.93-.355-2.53-.916-.582-.546-.927-1.255-1.184-1.898a23.694 23.694 0 0 1-.25-.66l-.098-.27a6.285 6.285 0 0 0-.317-.74C6.405 4.112 6.225 4 6 4c-.225 0-.405.11-.621.517-.109.203-.208.45-.317.74l-.099.269c-.077.211-.16.438-.249.66-.257.643-.602 1.352-1.185 1.898C2.93 8.645 2.118 9 1 9Z"/></svg>
